docs/images/vim.svg

<svg height="512" viewBox="0 0 512 512" width="512" xmlns="http://www.w3.org/2000/svg" xmlns:xlink="http://www.w3.org/1999/xlink"><defs><path id="a" d="m12.4473376 285.155183 212.6359294 212.463101c16.537895 16.524453 43.366106 16.509479 59.889015 0l212.63593-212.463101c16.537895-16.524453 16.522908-43.330859 0-59.840338l-212.63593-212.463101c-16.537895-16.52445301-43.366106-16.50947906-59.889015 0l-212.6359294 212.463101c-16.53789487 16.524453-16.52290873 43.330859 0 59.840338z"/><linearGradient id="b" x1="50%" x2="50%" y1="100%" y2="0%"><stop offset="0" stop-color="#fff"/><stop offset="1" stop-color="#cfffae"/></linearGradient><path id="c" d="m28.1226596 283.248658 198.9165904 198.754913c15.470865 15.45829 40.568111 15.444282 56.024957 0l198.91659-198.754913c15.470865-15.45829 15.456845-40.535138 0-55.97942l-198.91659-198.7549128c-15.470865-15.4582899-40.568112-15.4442821-56.024957 0l-198.9165904 198.7549128c-15.4708645 15.45829-15.4568453 40.535138 0 55.97942z"/><linearGradient id="d" x1="50%" x2="50%" y1="100%" y2="0%"><stop offset="0" stop-color="#b4e075"/><stop offset="1" stop-color="#67b300"/></linearGradient><path id="e" d="m43.5719023 281.24504 185.3951207 185.244433c14.419223 14.407503 37.81047 14.394448 52.216627 0l185.395121-185.244433c14.419224-14.407504 14.406157-37.779739 0-52.174187l-185.395121-185.2444328c-14.419223-14.4075037-37.81047-14.3944481-52.216627 0l-185.3951207 185.2444328c-14.4192236 14.407504-14.4061573 37.779739 0 52.174187z"/><linearGradient id="f" x1="50%" x2="50%" y1="0%" y2="100%"><stop offset="0" stop-color="#f1f1f1"/><stop offset="1" stop-color="#c1c1c1"/></linearGradient></defs><g fill="none" fill-rule="evenodd" transform="translate(1)"><use fill="#000" fill-rule="evenodd" xlink:href="#a"/><use fill="none" xlink:href="#a"/><use fill="url(#b)" fill-rule="evenodd" xlink:href="#c"/><use fill="none" xlink:href="#c"/><use fill="url(#d)" fill-rule="evenodd" xlink:href="#e"/><use fill="none" xlink:href="#e"/><path d="m188.714382 36.009939s38.08459-1.5938187 38.084592 41.8339231c0 43.4277419-38.084592 42.9205189-38.084592 42.9205189v151.153494l152.30434-154.413281s-29.804132-2.122256-29.80413-38.5741365c0-36.4518802 29.80413-42.9205185 29.80413-42.9205185h117.513005s34.314944 3.2597862 34.314946 41.8339231c0 24.2665919-13.98049 37.5151309-13.98049 37.5151309l-371.006839 371.864579s-12.7895671 14.935796-30.211818 14.935796-27.7667148-6.519572-27.7667141-26.078289v-355.316698s-41.13646534-1.086596-41.13646345-42.9205189c.00000327-41.8339231 35.71256795-41.8339231 41.13646345-41.8339231z" fill="#2d3436"/><path d="m181.714382 30.009939s38.08459-1.5938187 38.084592 41.8339231c0 43.4277419-38.084592 42.9205189-38.084592 42.9205189v151.153494l152.30434-154.413281s-29.804132-2.122256-29.80413-38.5741365c0-36.4518802 29.80413-42.9205185 29.80413-42.9205185h117.513005s34.314944 3.2597862 34.314946 41.8339231c0 24.2665914-13.98049 37.5151309-13.98049 37.5151309l-371.006839 371.864579s-12.7895671 14.935796-30.211818 14.935796-27.7667148-6.519572-27.7667141-26.078289v-355.316698s-41.13646534-1.086596-41.13646345-42.9205189c.00000327-41.8339231 35.71256795-41.8339231 41.13646345-41.8339231z" fill="#000"/><path d="m179.714382 28.009939s38.08459-1.5938187 38.084592 41.8339231c0 43.4277419-38.084592 42.9205189-38.084592 42.9205189v151.153494l152.30434-154.413281s-29.804132-2.122256-29.80413-38.5741365c0-36.4518802 29.80413-42.9205185 29.80413-42.9205185h117.513005s34.314944 3.2597862 34.314946 41.8339231c0 24.2665914-13.98049 37.5151309-13.98049 37.5151309l-371.0068391 371.864579s-12.789567 14.935796-30.2118179 14.935796-27.7667148-6.519572-27.7667141-26.078289v-355.316698s-41.13646534-1.086596-41.13646345-42.9205189c.00000327-41.8339231 35.71256795-41.8339231 41.13646345-41.8339231z" fill="#555753"/><path d="m194.390675 41.4064216c8.615076 4.5513369 13.713486 13.0585218 13.713486 28.3604206 0 15.3672277-5.17201 24.1447862-13.907232 29.0088208-3.051907 1.699394-6.401388 2.814618-9.776212 3.430725-1.198296.21876-2.30694.356753-3.288157.429921-6.554252-.022304-11.112991 4.476124-11.112991 10.051051v151.153494c0 8.942239 10.840027 13.388726 17.11952 7.022283l152.304339-154.413281c5.995579-6.078599 2.107122-16.390602-6.409249-16.9970259-1.088561-.1694954-1.862412-.3338052-2.715169-.5683545-2.485716-.6836915-4.975579-1.7745531-7.258654-3.3332785-6.576493-4.4899734-10.540578-12.0446425-10.540577-24.6977595 0-12.9168344 4.222748-21.580267 11.282202-27.4294646 2.457576-2.0362551 5.109991-3.5851396 7.744249-4.6938451.896502-.3773197 1.709564-.6685253 2.409096-.8814622.567695-.1604633 115.881588.0842529 115.881588.0842529.597089.2140838 1.574521.4337151 2.64445.735809 3.093159.8733522 6.186831 2.210537 9.021748 4.0732379 7.960463 5.2304734 12.648747 13.5811369 12.648748 27.0248767 0 8.8448599-2.160391 16.5169788-5.749418 23.0329241-1.234542 2.2413344-2.542665 4.1621404-3.823154 5.7460239-.421898.5218609-.799117.95488-1.118376 1.2970058-.235864.24492-371.3756085 372.240857-371.3756085 372.240857-.7044395.778153-1.2410675 1.349263-2.0854523 2.152891-1.4857867 1.414071-3.2069088 2.840913-5.1130698 4.165058-5.1789513 3.597641-10.6075599 5.680746-15.9340682 5.680746-13.5770585 0-17.7667146-3.583564-17.7667141-16.078289v-355.316699c0-5.419996-4.3178413-9.853397-9.735948-9.996513-2.147866-.192335-3.4033544-.372818-4.7691012-.640377-3.9057168-.765157-7.7985285-2.0556275-11.3466049-3.9534643-9.706518-5.1919366-15.2848101-13.8485899-15.2848094-28.3301635.0000012-15.8606099 5.5230645-24.343712 15.0601269-28.6919118 3.0029359-1.3691182 6.3024084-2.255129 9.7324842-2.7318166 2.3480456-.3263148 4.1006517-.4101952 6.3438524-.4101952h2.3741885 4.8911027 15.8947115 46.1717902 34.572973 24.977925 7.310825 2.640054c1.344591-.0276831 3.004141.0706832 5.06255.4122393 3.231744.5362502 6.413394 1.5317523 9.308556 3.0612637z" fill="#fff"/><path d="m189.719484 50.2483658c5.589467 2.9529099 8.384677 8.4309709 8.384677 19.5184769 0 11.2203203-2.926985 17.0172048-8.772168 20.271979-1.955297 1.088768-4.238122 1.8794013-6.707191 2.3301536-.804489.1468673-1.563105.244854-2.235865.2950209-11.017506-.0677682-20.369368 8.6144088-20.369368 20.0233638v151.153494c0 17.884477 21.680054 26.777452 34.239039 14.044565l152.304339-154.41328c11.991158-12.157198 4.214244-32.7812059-12.818499-33.9940528-2.327317-.6629363-3.782623-1.3233934-5.04558-2.1856532-4.039226-2.7577033-6.17909-7.5158843-6.179089-16.4389949 0-9.4698866 2.608341-15.5416627 7.662339-19.7292148 1.595108-1.3216468 3.377443-2.391859 5.243327-3.1771715.545272-.2294936 1.03811-.4088566 1.441945-.5317833-1.525295.4332181.148056.3726522-2.350301.4179119 1.742991-.017007 2.975327-.0225701 4.583946-.0269376 3.068182-.0083302 7.479611-.0122672 13.119453-.0121105 9.939545.0002761 23.45759.0131729 39.660386.036172 6.757626.0095921 13.85202.0207653 21.171654.0332045 8.931646.0151786 17.738803.0314416 26.037588.0477045 2.904554.005692 5.538076.0109774 7.852585.0157206 1.284937.0026426 1.284937.0026426 2.130918.0044042.614506.0012873-2.61178-.585191-2.61178-.585191.619369.2220722 1.141801.3726107 1.969276.5908959.959825.2522336 1.154119.3049275 1.332988.355431 2.269536.6408025 4.397145 1.5909357 6.247735 2.8068777 5.454552 3.5839487 8.140021 9.0635445 8.140022 18.667491 0 6.7992332-1.560049 12.855179-4.508591 18.2083109-.901146 1.6360467-1.868412 3.0812752-2.840515 4.2837039-.576501.6801864-86.207527 86.5117005-186.105653 186.6414305-40.622397 40.716576-84.14298 84.337858-127.663564 127.959007-15.232205 15.267403-29.376395 29.44426-42.069899 42.167067-7.0720943 7.08842-7.0720943 7.08842-11.7868237 11.81403l-4.1707207 4.180344c-.9873815 1.073162-1.3320961 1.431276-1.9003298 1.972082-1.1888294 1.131448-2.5189139 2.219755-3.9241672 3.195936-3.7776747 2.624222-7.2704238 3.893594-10.2288834 3.893594-2.8100727 0-4.862254-.17764-6.2554929-.499124-1.3317408-1.589867-1.5112213-3.235808-1.5112212-5.579165v-355.316699c0-10.839993-8.6356826-19.7067939-19.471896-19.9930261-1.0905757-.117513-2.0282296-.24527-3.11063-.4573197-3.1288016-.6129536-6.0443181-1.6161926-8.5525505-2.9578254-6.8589842-3.6688142-10.0013875-9.2397738-10.001387-19.5123461.0000009-11.4248514 2.9401762-16.7350611 9.2085682-19.5929874 1.9987214-.9112701 4.3436829-1.5622595 6.9605431-1.9259322 1.7143673-.2382506 2.9721389-.3150045 4.9673522-.3150045h2.3741885 1.8662087 3.024894 6.1631891 2.964365 6.7671574 20.2160375 25.9557527 16.487353 1.872096 16.213524 14.752417 10.225508 4.643814 2.667011 2.416486c1.286828-.0197717 2.341225.0603195 3.649179.2773511 2.325667.3859028 4.457662 1.0783658 6.274304 2.0380961z" fill="url(#f)"/></g></svg>

<?xml version="1.0" encoding="UTF-8" standalone="no"?>
<svg width="512px" height="512px" viewBox="0 0 512 512" version="1.1" xmlns="http://www.w3.org/2000/svg" xmlns:xlink="http://www.w3.org/1999/xlink" xmlns:sketch="http://www.bohemiancoding.com/sketch/ns">
    <title>vim</title>
    <description>Created with Sketch (http://www.bohemiancoding.com/sketch)</description>
    <defs>
        <path id="path-1" d="M12.4473376,285.155183 L225.083267,497.618284 C241.621162,514.142737 268.449373,514.127763 284.972282,497.618284 L497.608212,285.155183 C514.146107,268.63073 514.13112,241.824324 497.608212,225.314845 L284.972282,12.851744 C268.434387,-3.67270901 241.606176,-3.65773506 225.083267,12.851744 L12.4473376,225.314845 C-4.09055727,241.839298 -4.07557113,268.645704 12.4473376,285.155183 Z"></path>
        <linearGradient x1="50%" y1="100%" x2="50%" y2="0%" id="linearGradient-2">
            <stop stop-color="#FFFFFF" offset="0%"></stop>
            <stop stop-color="#CFFFAE" offset="100%"></stop>
        </linearGradient>
        <path id="path-3" d="M28.1226596,283.248658 L227.03925,482.003571 C242.510115,497.461861 267.607361,497.447853 283.064207,482.003571 L481.980797,283.248658 C497.451662,267.790368 497.437642,242.71352 481.980797,227.269238 L283.064207,28.5143252 C267.593342,13.0560353 242.496095,13.0700431 227.03925,28.5143252 L28.1226596,227.269238 C12.6517951,242.727528 12.6658143,267.804376 28.1226596,283.248658 Z"></path>
        <linearGradient x1="50%" y1="100%" x2="50%" y2="0%" id="linearGradient-4">
            <stop stop-color="#B4E075" offset="0%"></stop>
            <stop stop-color="#67B300" offset="100%"></stop>
        </linearGradient>
        <path id="path-5" d="M43.5719023,281.24504 L228.967023,466.489473 C243.386246,480.896976 266.777493,480.883921 281.18365,466.489473 L466.578771,281.24504 C480.997995,266.837536 480.984928,243.465301 466.578771,229.070853 L281.18365,43.8264202 C266.764427,29.4189165 243.37318,29.4319721 228.967023,43.8264202 L43.5719023,229.070853 C29.1526787,243.478357 29.165745,266.850592 43.5719023,281.24504 Z"></path>
        <linearGradient x1="50%" y1="0%" x2="50%" y2="100%" id="linearGradient-6">
            <stop stop-color="#F1F1F1" offset="0%"></stop>
            <stop stop-color="#C1C1C1" offset="100%"></stop>
        </linearGradient>
    </defs>
    <g id="Page-1" stroke="none" stroke-width="1" fill="none" fill-rule="evenodd" sketch:type="MSPage">
        <g id="Group" sketch:type="MSLayerGroup" transform="translate(1.000000, 0.000000)">
            <g id="bottom">
                <use fill="#000000" fill-rule="evenodd" sketch:type="MSShapeGroup" xlink:href="#path-1"></use>
                <use fill="none" xlink:href="#path-1"></use>
            </g>
            <g id="middle">
                <use fill="url(#linearGradient-2)" fill-rule="evenodd" sketch:type="MSShapeGroup" xlink:href="#path-3"></use>
                <use fill="none" xlink:href="#path-3"></use>
            </g>
            <g id="top">
                <use fill="url(#linearGradient-4)" fill-rule="evenodd" sketch:type="MSShapeGroup" xlink:href="#path-5"></use>
                <use fill="none" xlink:href="#path-5"></use>
            </g>
            <path d="M188.714382,36.009939 C188.714382,36.009939 226.798972,34.4161203 226.798974,77.8438621 C226.798974,121.271604 188.714382,120.764381 188.714382,120.764381 L188.714382,271.917875 L341.018722,117.504594 C341.018722,117.504594 311.21459,115.382338 311.214592,78.9304575 C311.214592,42.4785773 341.018722,36.009939 341.018722,36.009939 L458.531727,36.009939 C458.531727,36.009939 492.846671,39.2697252 492.846673,77.8438621 C492.846673,102.110454 478.866183,115.358993 478.866183,115.358993 L107.859344,487.223572 C107.859344,487.223572 95.0697769,502.159368 77.647526,502.159368 C60.2252751,502.159368 49.8808112,495.639796 49.8808119,476.081079 L49.8808119,120.764381 C49.8808119,120.764381 8.74434656,119.677785 8.74434845,77.8438621 C8.74435172,36.009939 44.4569164,36.009939 49.8808119,36.009939 C55.3047074,36.009939 188.714382,36.009939 188.714382,36.009939 Z" id="v-shadow" fill="#2D3436" sketch:type="MSShapeGroup"></path>
            <path d="M181.714382,30.009939 C181.714382,30.009939 219.798972,28.4161203 219.798974,71.8438621 C219.798974,115.271604 181.714382,114.764381 181.714382,114.764381 L181.714382,265.917875 L334.018722,111.504594 C334.018722,111.504594 304.21459,109.382338 304.214592,72.9304575 C304.214592,36.4785773 334.018722,30.009939 334.018722,30.009939 L451.531727,30.009939 C451.531727,30.009939 485.846671,33.2697252 485.846673,71.8438621 C485.846673,96.1104535 471.866183,109.358993 471.866183,109.358993 L100.859344,481.223572 C100.859344,481.223572 88.0697769,496.159368 70.647526,496.159368 C53.2252751,496.159368 42.8808112,489.639796 42.8808119,470.081079 L42.8808119,114.764381 C42.8808119,114.764381 1.74434656,113.677785 1.74434845,71.8438621 C1.74435172,30.009939 37.4569164,30.009939 42.8808119,30.009939 C48.3047074,30.009939 181.714382,30.009939 181.714382,30.009939 Z" id="v-black-highlight" fill="#000000" sketch:type="MSShapeGroup"></path>
            <path d="M179.714382,28.009939 C179.714382,28.009939 217.798972,26.4161203 217.798974,69.8438621 C217.798974,113.271604 179.714382,112.764381 179.714382,112.764381 L179.714382,263.917875 L332.018722,109.504594 C332.018722,109.504594 302.21459,107.382338 302.214592,70.9304575 C302.214592,34.4785773 332.018722,28.009939 332.018722,28.009939 L449.531727,28.009939 C449.531727,28.009939 483.846671,31.2697252 483.846673,69.8438621 C483.846673,94.1104535 469.866183,107.358993 469.866183,107.358993 L98.8593439,479.223572 C98.8593439,479.223572 86.0697769,494.159368 68.647526,494.159368 C51.2252751,494.159368 40.8808112,487.639796 40.8808119,468.081079 L40.8808119,112.764381 C40.8808119,112.764381 -0.255653443,111.677785 -0.255651549,69.8438621 C-0.255648279,28.009939 35.4569164,28.009939 40.8808119,28.009939 C46.3047074,28.009939 179.714382,28.009939 179.714382,28.009939 Z" id="v-back" fill="#555753" sketch:type="MSShapeGroup"></path>
            <path d="M194.390675,41.4064216 C203.005751,45.9577585 208.104161,54.4649434 208.104161,69.7668422 C208.104161,85.1340699 202.932151,93.9116284 194.196929,98.775663 C191.145022,100.475057 187.795541,101.590281 184.420717,102.206388 C183.222421,102.425148 182.113777,102.563141 181.13256,102.636309 C174.578308,102.614005 170.019569,107.112433 170.019569,112.68736 L170.019569,263.840854 C170.019569,272.783093 180.859596,277.22958 187.139089,270.863137 L339.443428,116.449856 C345.439007,110.371257 341.55055,100.059254 333.034179,99.4528301 C331.945618,99.2833347 331.171767,99.1190249 330.31901,98.8844756 C327.833294,98.2007841 325.343431,97.1099225 323.060356,95.5511971 C316.483863,91.0612237 312.519778,83.5065546 312.519779,70.8534376 C312.519779,57.9366032 316.742527,49.2731706 323.801981,43.423973 C326.259557,41.3877179 328.911972,39.8388334 331.54623,38.7301279 C332.442732,38.3528082 333.255794,38.0616026 333.955326,37.8486657 C334.523021,37.6882024 449.836914,37.9329186 449.836914,37.9329186 C450.434003,38.1470024 451.411435,38.3666337 452.481364,38.6687276 C455.574523,39.5420798 458.668195,40.8792646 461.503112,42.7419655 C469.463575,47.9724389 474.151859,56.3231024 474.15186,69.7668422 C474.15186,78.6117021 471.991469,86.283821 468.402442,92.7997663 C467.1679,95.0411007 465.859777,96.9619067 464.579288,98.5457902 C464.15739,99.0676511 463.780171,99.5006702 463.460912,99.842796 C463.225048,100.087716 92.0853035,472.083653 92.0853035,472.083653 C91.380864,472.861806 90.844236,473.432916 89.9998512,474.236544 C88.5140645,475.650615 86.7929424,477.077457 84.8867814,478.401602 C79.7078301,481.999243 74.2792215,484.082348 68.9527132,484.082348 C55.3756547,484.082348 51.1859986,480.498784 51.1859991,468.004059 L51.1859991,112.68736 C51.1859991,107.267364 46.8681578,102.833963 41.4500511,102.690847 C39.3021851,102.498512 38.0466967,102.318029 36.6809499,102.05047 C32.7752331,101.285313 28.8824214,99.9948425 25.334345,98.0970057 C15.627827,92.9050691 10.0495349,84.2484158 10.0495356,69.7668422 C10.0495368,53.9062323 15.5726001,45.4231302 25.1096625,41.0749304 C28.1125984,39.7058122 31.4120709,38.8198014 34.8421467,38.3431138 C37.1901923,38.016799 38.9427984,37.9329186 41.1859991,37.9329186 C41.9236444,37.9329186 41.9236444,37.9329186 43.5601876,37.9329186 C45.6162165,37.9329186 45.6162165,37.9329186 48.4512903,37.9329186 C55.2001155,37.9329186 55.2001155,37.9329186 64.3460018,37.9329186 C85.514248,37.9329186 85.514248,37.9329186 110.517792,37.9329186 C128.519996,37.9329186 128.519996,37.9329186 145.090765,37.9329186 C159.474896,37.9329186 159.474896,37.9329186 170.06869,37.9329186 C174.426397,37.9329186 174.426397,37.9329186 177.379515,37.9329186 C179.554171,37.9329186 179.554171,37.9329186 180.019569,37.9329186 C181.36416,37.9052355 183.02371,38.0036018 185.082119,38.3451579 C188.313863,38.8814081 191.495513,39.8769102 194.390675,41.4064216 Z" id="v-white-stroke" fill="#FFFFFF" sketch:type="MSShapeGroup"></path>
            <path d="M189.719484,50.2483658 C195.308951,53.2012757 198.104161,58.6793367 198.104161,69.7668427 C198.104161,80.987163 195.177176,86.7840475 189.331993,90.0388217 C187.376696,91.1275897 185.093871,91.918223 182.624802,92.3689753 C181.820313,92.5158426 181.061697,92.6138293 180.388937,92.6639962 C169.371431,92.596228 160.019569,101.278405 160.019569,112.68736 L160.019569,263.840854 C160.019569,281.725331 181.699623,290.618306 194.258608,277.885419 L346.562947,123.472139 C358.554105,111.314941 350.777191,90.6909331 333.744448,89.4780862 C331.417131,88.8151499 329.961825,88.1546928 328.698868,87.292433 C324.659642,84.5347297 322.519778,79.7765487 322.519779,70.8534381 C322.519779,61.3835515 325.12812,55.3117754 330.182118,51.1242233 C331.777226,49.8025765 333.559561,48.7323643 335.425445,47.9470518 C335.970717,47.7175582 336.463555,47.5381952 336.86739,47.4152685 C335.342095,47.8484866 337.015446,47.7879207 334.517089,47.8331804 C336.26008,47.8161734 337.492416,47.8106103 339.101035,47.8062428 C342.169217,47.7979126 346.580646,47.7939756 352.220488,47.7941323 C362.160033,47.7944084 375.678078,47.8073052 391.880874,47.8303043 C398.6385,47.8398964 405.732894,47.8510696 413.052528,47.8635088 C421.984174,47.8786874 430.791331,47.8949504 439.090116,47.9112133 C441.99467,47.9169053 444.628192,47.9221907 446.942701,47.9269339 C448.227638,47.9295765 448.227638,47.9295765 449.073619,47.9313381 C449.688125,47.9326254 446.461839,47.3461471 446.461839,47.3461471 C447.081208,47.5682193 447.60364,47.7187578 448.431115,47.937043 C449.39094,48.1892766 449.585234,48.2419705 449.764103,48.292474 C452.033639,48.9332765 454.161248,49.8834097 456.011838,51.0993517 C461.46639,54.6833004 464.151859,60.1628962 464.15186,69.7668427 C464.15186,76.5660759 462.591811,82.6220217 459.643269,87.9751536 C458.742123,89.6112003 457.774857,91.0564288 456.802754,92.2588575 C456.226253,92.9390439 370.595227,178.770558 270.697101,278.900288 C230.074704,319.616864 186.554121,363.238146 143.033537,406.859295 C127.801332,422.126698 113.657142,436.303555 100.963638,449.026362 C93.8915437,456.114782 93.8915437,456.114782 89.1768143,460.840392 L85.0060936,465.020736 C84.0187121,466.093898 83.6739975,466.452012 83.1057638,466.992818 C81.9169344,468.124266 80.5868499,469.212573 79.1815966,470.188754 C75.4039219,472.812976 71.9111728,474.082348 68.9527132,474.082348 C66.1426405,474.082348 64.0904592,473.904708 62.6972203,473.583224 C61.3654795,471.993357 61.185999,470.347416 61.1859991,468.004059 L61.1859991,112.68736 C61.1859991,101.847367 52.5503165,92.9805661 41.7141031,92.6943339 C40.6235274,92.5768209 39.6858735,92.4490639 38.6034731,92.2370142 C35.4746715,91.6240606 32.559155,90.6208216 30.0509226,89.2791888 C23.1919384,85.6103746 20.0495351,80.039415 20.0495356,69.7668427 C20.0495365,58.3419913 22.9897118,53.0317816 29.2581038,50.1738553 C31.2568252,49.2625852 33.6017867,48.6115958 36.2186469,48.2479231 C37.9330142,48.0096725 39.1907858,47.9329186 41.1859991,47.9329186 C42.6115306,47.9329186 42.6115306,47.9329186 43.5601876,47.9329186 C44.6749456,47.9329186 44.6749456,47.9329186 45.4263963,47.9329186 C46.8355882,47.9329186 46.8355882,47.9329186 48.4512903,47.9329186 C52.1412289,47.9329186 52.1412289,47.9329186 54.6144794,47.9329186 C55.9916363,47.9329186 55.9916363,47.9329186 57.5788444,47.9329186 C60.2210501,47.9329186 60.2210501,47.9329186 64.3460018,47.9329186 C76.6787193,47.9329186 76.6787193,47.9329186 84.5620393,47.9329186 C93.8736723,47.9329186 93.8736723,47.9329186 110.517792,47.9329186 C120.825257,47.9329186 120.825257,47.9329186 127.005145,47.9329186 C127.947599,47.9329186 127.947599,47.9329186 128.877241,47.9329186 C135.080627,47.9329186 135.080627,47.9329186 145.090765,47.9329186 C154.719781,47.9329186 154.719781,47.9329186 159.843182,47.9329186 C164.281852,47.9329186 164.281852,47.9329186 170.06869,47.9329186 C173.151708,47.9329186 173.151708,47.9329186 174.712504,47.9329186 C175.831125,47.9329186 175.831125,47.9329186 177.379515,47.9329186 C179.320528,47.9329186 179.320528,47.9329186 179.796001,47.9329186 C181.082829,47.9131469 182.137226,47.9932381 183.44518,48.2102697 C185.770847,48.5961725 187.902842,49.2886355 189.719484,50.2483658 Z" id="v-gradient" fill="url(#linearGradient-6)" sketch:type="MSShapeGroup"></path>
        </g>
    </g>
</svg>
